svgs/salatuk.svg

<svg xmlns="http://www.w3.org/2000/svg" viewBox="0 0 192 192"><path d="M40.288 175.365c-5.255-1.102-7.532-9.692-3.778-14.252 2.167-2.633 9.949-3.683 10.739-1.449.286.807-.45 1.346-1.837 1.346-4.237 0-6.479 1.988-6.479 5.744 0 5.646 1.199 6.099 16.15 6.099 9.115 0 13.989-.424 14.857-1.292.846-.845 1.292-5.311 1.292-12.92 0-10.91.133-11.628 2.154-11.628 2.028 0 2.153.718 2.153 12.309 0 11.285.176 12.365 2.113 12.98 1.162.369 3.1.142 4.306-.504 1.945-1.041 2.194-2.219 2.194-10.367 0-8.174.209-9.153 1.885-8.832 1.577.301 1.934 1.776 2.194 9.061.384 10.777-1.168 13.409-7.847 13.308-2.369-.036-5.518-.026-6.998.022-20.746.674-31.113.791-33.098.375Zm56.784-.79c0-1.25 1.033-1.722 3.769-1.722h3.768V162.15c0-5.887.386-10.942.859-11.234 2.364-1.461 3.38 1.639 3.673 11.207.29 9.456.478 10.215 2.601 10.518 4.617.659 5.787-2.253 5.787-14.4 0-9.974.21-11.228 1.884-11.23 1.683-.002 1.847 1.05 1.535 9.835-.409 11.512.162 14.555 2.892 15.421 4.607 1.463 5.532-.175 5.532-9.791 0-7.324.332-9.198 1.724-9.732.948-.364 2.07-.1 2.494.585.571.924 1.642.943 4.144.07 2.005-.698 9.061-1.031 17.389-.82 15.895.404 17.095.949 18.069 8.215.974 7.263-.393 11.818-4.129 13.749-2.713 1.403-6.003 1.597-19.062 1.124-19.45-.705-19.762-.714-24.397-.714-7.072 0-8.62.058-18.573.701-8.678.561-9.959.422-9.959-1.079Zm70.845-3.014c.71-.711 1.292-4.005 1.292-7.321s-.582-6.611-1.292-7.322c-.875-.874-5.893-1.292-15.534-1.292-14.103 0-14.263.028-16.473 2.837-2.506 3.186-3.064 10.973-.939 13.098.882.883 6.101 1.292 16.473 1.292s15.59-.409 16.473-1.292ZM52.963 151.589c.019-.444.678-1.655 1.465-2.692 1.5-1.976 7.115-2.64 7.115-.841 0 .574-.727.764-1.615.423-.889-.341-1.615-.083-1.615.572 0 .656.726 1.192 1.615 1.192.888 0 1.615.485 1.615 1.077s-1.938 1.077-4.307 1.077c-2.369 0-4.291-.364-4.273-.808Zm27.959-3.499c0-.592.727-1.077 1.615-1.077.889 0 1.615.485 1.615 1.077s-.726 1.077-1.615 1.077c-.888 0-1.615-.485-1.615-1.077Zm6.46 0c0-.592.727-1.077 1.615-1.077.889 0 1.615.485 1.615 1.077s-.726 1.077-1.615 1.077c-.888 0-1.615-.485-1.615-1.077Zm-49.389-7.344c-5.095-7.156-5.588-19.689-1.135-28.887 1.97-4.069 2.117-5.212 1.011-7.88-1.757-4.241-.504-9.066 3.357-12.926 2.679-2.68 3.007-3.552 2.026-5.386-1.549-2.893-2.635-14.972-1.758-19.545.617-3.221 1.302-3.819 6.118-5.341 5.178-1.638 5.472-1.622 6.521.336 1.489 2.783 1.444 16.539-.073 22.172-1.178 4.375-1.093 4.711 1.963 7.767 3.726 3.726 4.975 8.122 3.448 12.138-.879 2.311-.582 3.823 1.567 7.993 1.458 2.828 2.949 7.351 3.312 10.052.834 6.208-1.197 16.192-4.025 19.787-2.018 2.566-2.794 2.757-11.169 2.757-8.644 0-9.086-.12-11.163-3.037Zm40.738-.462c-9.038-14.639-6.055-36.534 6.716-49.305 5.215-5.215 15.295-11.124 22.568-13.23 3.936-1.14 4.595-1.812 5.812-5.934.755-2.557 2.235-5.602 3.289-6.767 1.341-1.481 1.831-3.513 1.631-6.762-.275-4.464 1.639-8.172 4.217-8.172 1.931 0 4.396 5.297 4.06 8.724-.256 2.599.388 4.273 2.51 6.536 1.57 1.672 3.268 4.792 3.774 6.932.838 3.544 1.506 4.103 7.495 6.271 14.239 5.156 24.689 13.836 30.197 25.084 2.746 5.608 3.041 7.299 3.047 17.512.005 9.601-.379 12.157-2.548 16.958l-2.556 5.652H80.891ZM31.168 58.555c-3.847-1.058-13.769-8.718-13.769-10.63 0-.511 1.499-.407 3.331.232 1.832.638 6.106.909 9.499.602 13.744-1.247 22.753-9.989 26.399-25.618.849-3.643 1.763-6.841 2.03-7.108.267-.267 1.483 1.129 2.703 3.102 10.228 16.55-1.161 38.719-20.61 40.117-3.073.221-7.385-.093-9.583-.697Z"/></svg>

<svg
    xmlns="http://www.w3.org/2000/svg"
    viewBox="0 0 192 192"
    id="vector">
    <path
        id="path"
        d="M 40.288 175.365 C 35.033 174.263 32.756 165.673 36.51 161.113 C 38.677 158.48 46.459 157.43 47.249 159.664 C 47.535 160.471 46.799 161.01 45.412 161.01 C 41.175 161.01 38.933 162.998 38.933 166.754 C 38.933 172.4 40.132 172.853 55.083 172.853 C 64.198 172.853 69.072 172.429 69.94 171.561 C 70.786 170.716 71.232 166.25 71.232 158.641 C 71.232 147.731 71.365 147.013 73.386 147.013 C 75.414 147.013 75.539 147.731 75.539 159.322 C 75.539 170.607 75.715 171.687 77.652 172.302 C 78.814 172.671 80.752 172.444 81.958 171.798 C 83.903 170.757 84.152 169.579 84.152 161.431 C 84.152 153.257 84.361 152.278 86.037 152.599 C 87.614 152.9 87.971 154.375 88.231 161.66 C 88.615 172.437 87.063 175.069 80.384 174.968 C 78.015 174.932 74.866 174.942 73.386 174.99 C 52.64 175.664 42.273 175.781 40.288 175.365 Z M 97.072 174.575 C 97.072 173.325 98.105 172.853 100.841 172.853 L 104.609 172.853 L 104.609 162.15 C 104.609 156.263 104.995 151.208 105.468 150.916 C 107.832 149.455 108.848 152.555 109.141 162.123 C 109.431 171.579 109.619 172.338 111.742 172.641 C 116.359 173.3 117.529 170.388 117.529 158.241 C 117.529 148.267 117.739 147.013 119.413 147.011 C 121.096 147.009 121.26 148.061 120.948 156.846 C 120.539 168.358 121.11 171.401 123.84 172.267 C 128.447 173.73 129.372 172.092 129.372 162.476 C 129.372 155.152 129.704 153.278 131.096 152.744 C 132.044 152.38 133.166 152.644 133.59 153.329 C 134.161 154.253 135.232 154.272 137.734 153.399 C 139.739 152.701 146.795 152.368 155.123 152.579 C 171.018 152.983 172.218 153.528 173.192 160.794 C 174.166 168.057 172.799 172.612 169.063 174.543 C 166.35 175.946 163.06 176.14 150.001 175.667 C 130.551 174.962 130.239 174.953 125.604 174.953 C 118.532 174.953 116.984 175.011 107.031 175.654 C 98.353 176.215 97.072 176.076 97.072 174.575 Z M 167.917 171.561 C 168.627 170.85 169.209 167.556 169.209 164.24 C 169.209 160.924 168.627 157.629 167.917 156.918 C 167.042 156.044 162.024 155.626 152.383 155.626 C 138.28 155.626 138.12 155.654 135.91 158.463 C 133.404 161.649 132.846 169.436 134.971 171.561 C 135.853 172.444 141.072 172.853 151.444 172.853 C 161.816 172.853 167.034 172.444 167.917 171.561 Z M 52.963 151.589 C 52.982 151.145 53.641 149.934 54.428 148.897 C 55.928 146.921 61.543 146.257 61.543 148.056 C 61.543 148.63 60.816 148.82 59.928 148.479 C 59.039 148.138 58.313 148.396 58.313 149.051 C 58.313 149.707 59.039 150.243 59.928 150.243 C 60.816 150.243 61.543 150.728 61.543 151.32 C 61.543 151.912 59.605 152.397 57.236 152.397 C 54.867 152.397 52.945 152.033 52.963 151.589 Z M 80.922 148.09 C 80.922 147.498 81.649 147.013 82.537 147.013 C 83.426 147.013 84.152 147.498 84.152 148.09 C 84.152 148.682 83.426 149.167 82.537 149.167 C 81.649 149.167 80.922 148.682 80.922 148.09 Z M 87.382 148.09 C 87.382 147.498 88.109 147.013 88.997 147.013 C 89.886 147.013 90.612 147.498 90.612 148.09 C 90.612 148.682 89.886 149.167 88.997 149.167 C 88.109 149.167 87.382 148.682 87.382 148.09 Z M 37.993 140.746 C 32.898 133.59 32.405 121.057 36.858 111.859 C 38.828 107.79 38.975 106.647 37.869 103.979 C 36.112 99.738 37.365 94.913 41.226 91.053 C 43.905 88.373 44.233 87.501 43.252 85.667 C 41.703 82.774 40.617 70.695 41.494 66.122 C 42.111 62.901 42.796 62.303 47.612 60.781 C 52.79 59.143 53.084 59.159 54.133 61.117 C 55.622 63.9 55.577 77.656 54.06 83.289 C 52.882 87.664 52.967 88 56.023 91.056 C 59.749 94.782 60.998 99.178 59.471 103.194 C 58.592 105.505 58.889 107.017 61.038 111.187 C 62.496 114.015 63.987 118.538 64.35 121.239 C 65.184 127.447 63.153 137.431 60.325 141.026 C 58.307 143.592 57.531 143.783 49.156 143.783 C 40.512 143.783 40.07 143.663 37.993 140.746 Z M 78.731 140.284 C 69.693 125.645 72.676 103.75 85.447 90.979 C 90.662 85.764 100.742 79.855 108.015 77.749 C 111.951 76.609 112.61 75.937 113.827 71.815 C 114.582 69.258 116.062 66.213 117.116 65.048 C 118.457 63.567 118.947 61.535 118.747 58.286 C 118.472 53.822 120.386 50.114 122.964 50.114 C 124.895 50.114 127.36 55.411 127.024 58.838 C 126.768 61.437 127.412 63.111 129.534 65.374 C 131.104 67.046 132.802 70.166 133.308 72.306 C 134.146 75.85 134.814 76.409 140.803 78.577 C 155.042 83.733 165.492 92.413 171 103.661 C 173.746 109.269 174.041 110.96 174.047 121.173 C 174.052 130.774 173.668 133.33 171.499 138.131 L 168.943 143.783 L 80.891 143.783 Z M 31.168 58.555 C 27.321 57.497 17.399 49.837 17.399 47.925 C 17.399 47.414 18.898 47.518 20.73 48.157 C 22.562 48.795 26.836 49.066 30.229 48.759 C 43.973 47.512 52.982 38.77 56.628 23.141 C 57.477 19.498 58.391 16.3 58.658 16.033 C 58.925 15.766 60.141 17.162 61.361 19.135 C 71.589 35.685 60.2 57.854 40.751 59.252 C 37.678 59.473 33.366 59.159 31.168 58.555 Z"
        fill="#000000"
        stroke-width="12"/>
</svg>
